X:13
T:Smith's A Gallant Fireman, The
R:strathspey
Z:id:hn-strathspey-13
M:C
L:1/8
K:D
D2D>F A2A>F | A>Bd>A F2E>D | E2E>F E2E>f | g>fe<d B>A B/c/d | 
D2D>F A2A>F | A>Bd>A F2E>D | G>BG<B F>AF<A | E>FG>A B>AB>c || 
d2f>e e<dd>B | A>Bd<A F2E>D | e2e>f e2e>f | g>fe<d B>AB>c | 
d2f>e e<dd>B | A>Bd<A F2E>D | G>BG<B F>AF<A | E>FG>A B>A B/c/d || 

